X: 19799
T: Jerome Burke's
R: polka
M: 2/4
K: Dmajor
|:D>F FA|dA AA|BE EF|GG/G/ FE|
D>F FA|d>A AA|B>A Bc|d2 d2:|
|:f>f ff|a>f ed|ee/e/ ee|fe de|
f>f ff|a>f ed|eA Bc|d2 d2:|

